X: 38761
T: Strop The Razor
R: jig
M: 6/8
K: Gmajor
|:BG{A}G AG{A}G|BG{A}G AGF|DG{A}G GFG|DGF G2A|
BG{A}G AG{A}G|BG{A}G AGF|D2E F2G|ADE FGA:|
|:dB{c}B cA{B}A|dB{c}B cAF|DG{A}G GFG|DGF G2B|
dB{c}B cA{B}A|dB{c}B cAF|D2E F2G|ADE FGA:|
|:BAB cBc|ded {e}dBd|g3 gfd|gag {a}gdc|
BAB cBc|ded d2e|=f3 fde|=fdg =fdc:|

